assets/svg/single/goodfirms.svg

<svg width="140" height="21" viewBox="0 0 140 21" fill="none" xmlns="http://www.w3.org/2000/svg">
<path d="M8.57907 7.33887C8.57907 7.33887 7.42036 7.22359 7.42036 8.2561V12.8423H15.0723V14.2186C15.0723 14.2186 15.0951 14.9063 14.3766 14.9063H7.42036V20.8688H15.7679C15.7679 20.8688 20.8221 20.0887 20.8688 14.9063V7.33887H8.57907ZM20.6363 0H5.56502C0.115275 1.28393 0 5.75582 0 5.75582V20.8688H5.79756V7.10931C5.79756 5.93966 6.95627 5.73396 6.95627 5.73396H20.6373V0H20.6363ZM40.5332 16.544C40.1357 16.8093 39.8416 17.0041 39.6339 17.1283C38.8905 17.5884 38.182 17.9432 37.5251 18.2264C36.5741 18.616 35.7264 18.8108 34.9662 18.8108C32.3556 18.8108 30.1942 18.0138 28.4472 16.4019C26.7002 14.79 25.8376 12.7717 25.8376 10.3281C25.8376 7.97288 26.6157 5.93569 28.1888 4.1996C29.7619 2.46451 31.664 1.61386 33.9118 1.61386C34.846 1.61386 35.8477 1.77286 36.8851 2.11073C38.2337 2.53507 39.3228 3.17305 40.1874 4.00483L38.6828 5.66936C38.0439 5.05025 37.2141 4.58915 36.2452 4.30593C35.5197 4.09327 34.7247 3.98793 33.8423 3.98793C32.2692 3.98793 30.9375 4.62393 29.8832 5.88203C28.8288 7.15701 28.2932 8.66255 28.2932 10.4334C28.2932 12.1874 28.8974 13.6214 30.1077 14.7731C31.3181 15.9239 32.8565 16.5082 34.7237 16.5082C35.5018 16.5082 36.2978 16.2598 37.1097 15.7828C37.7845 15.269 38.1303 15.0206 38.1472 15.0027V11.3725H33.0989L33.8244 9.10576H40.5332V16.544ZM55.7824 12.1158C55.7824 13.8688 55.1603 15.3922 53.9151 16.6672C52.6699 17.9422 51.1316 18.5981 49.2991 18.5981C47.6048 18.5981 46.1181 17.9601 44.8382 16.703C43.5582 15.4459 42.9361 13.9225 42.9361 12.1337C42.9361 10.3629 43.5423 8.83944 44.7517 7.52868C45.9611 6.21792 47.4487 5.58092 49.1948 5.58092C51.1316 5.58092 52.7047 6.20102 53.932 7.45812C55.1603 8.68044 55.7824 10.2386 55.7824 12.1158ZM53.4133 12.1516C53.4133 10.9651 53.0158 9.95542 52.2208 9.14054C51.4258 8.30778 50.4399 7.90034 49.2643 7.90034C48.1583 7.90034 47.2242 8.32567 46.446 9.17632C45.6679 10.026 45.2873 10.9999 45.2873 12.098C45.2873 13.2497 45.6848 14.2236 46.4629 15.0385C47.2411 15.8533 48.21 16.2777 49.3846 16.2777C50.4747 16.2777 51.4079 15.8702 52.2039 15.0554C53.0158 14.2405 53.4142 13.2666 53.4142 12.1516H53.4133ZM70.8238 12.1158C70.8238 13.8688 70.2017 15.3922 68.9566 16.6672C67.7114 17.9422 66.1731 18.5981 64.3406 18.5981C62.6462 18.5981 61.1596 17.9601 59.8796 16.703C58.6007 15.4459 57.9776 13.9225 57.9776 12.1337C57.9776 10.3629 58.5838 8.83944 59.7932 7.52868C61.0035 6.21792 62.4902 5.58092 64.2362 5.58092C66.173 5.58092 67.7462 6.20102 68.9734 7.45812C70.2017 8.68044 70.8238 10.2386 70.8238 12.1158ZM68.4547 12.1516C68.4547 10.9651 68.0572 9.95542 67.2622 9.14054C66.4672 8.30778 65.4814 7.90034 64.3058 7.90034C63.1997 7.90034 62.2656 8.32567 61.4875 9.17632C60.7094 10.026 60.3288 10.9999 60.3288 12.098C60.3288 13.2497 60.7263 14.2236 61.5054 15.0385C62.2825 15.8533 63.2514 16.2777 64.427 16.2777C65.5162 16.2777 66.4493 15.8702 67.2453 15.0554C68.0572 14.2405 68.4557 13.2666 68.4557 12.1516H68.4547ZM84.7423 18.2433L82.564 18.5802V16.4725L82.097 17.0031C81.6855 17.3885 81.2194 17.711 80.7137 17.9601C79.9714 18.3025 79.163 18.4779 78.3455 18.4739C76.6512 18.4739 75.1983 17.8538 74.0227 16.5957C72.8471 15.3376 72.2598 13.8509 72.2598 12.1158C72.2598 10.3271 72.8471 8.78677 74.0058 7.51079C75.1645 6.23481 76.5816 5.59781 78.276 5.59781C79.2449 5.59781 80.0916 5.75681 80.8001 6.07581C81.302 6.30636 81.7342 6.60747 82.097 6.98012C82.2182 7.13912 82.3394 7.31601 82.4607 7.47501V1.94974L84.7761 1.61286L84.7423 18.2433ZM82.7022 12.2748C82.7022 11.0356 82.2868 9.9902 81.4401 9.14054C80.5934 8.272 79.6414 7.84767 78.5532 7.84767C77.3428 7.84767 76.3749 8.25511 75.6316 9.06999C74.9389 9.8481 74.5762 10.8051 74.5762 11.9211C74.5762 13.1782 74.9389 14.2226 75.6654 15.0375C76.3908 15.8524 77.3081 16.2598 78.432 16.2598C79.538 16.2598 80.507 15.8881 81.3715 15.1269C82.253 14.3468 82.7031 13.3908 82.7031 12.2748H82.7022ZM96.9655 4.25326H90.4823V8.66255H95.5126V10.9293H90.4823V18.2264L87.9581 18.5981V1.96763H96.4637L96.9655 4.25326ZM102.17 2.9594L100.614 4.92504L99.1269 2.9594L100.7 1.01164L102.17 2.9594ZM101.703 18.2433L99.3863 18.5623V6.25369L101.703 5.89991V18.2443V18.2433ZM112.163 5.77569L111.074 8.28989C110.931 8.26807 110.786 8.25645 110.642 8.25511C110.417 8.25511 110.192 8.273 109.967 8.30778C109.741 8.34256 109.5 8.432 109.241 8.55622C108.757 8.76888 108.342 9.22899 107.979 9.91965C107.578 10.7035 107.37 11.5721 107.373 12.4527V18.2264L105.058 18.5981V6.25369L107.201 5.86414V8.432C107.477 7.98878 107.772 7.54656 108.048 7.08646C108.445 6.62535 108.912 6.28947 109.431 6.0937C109.707 5.98836 110.209 5.89892 110.969 5.82836C111.696 5.77569 112.111 5.73992 112.163 5.77569ZM129.417 18.2433L127.1 18.5802V10.1323C127.1 9.35221 126.927 8.78577 126.581 8.432C126.236 8.07723 125.717 7.90034 125.042 7.90034C124.23 7.90034 123.607 8.23722 123.193 8.90999C122.915 9.3701 122.76 9.86598 122.76 10.3619V18.2254L120.444 18.6508V10.185C120.444 9.44165 120.271 8.87422 119.942 8.48566C119.596 8.09511 119.147 7.90034 118.559 7.90034H118.334C117.521 7.90034 116.933 8.23722 116.57 8.92788C116.294 9.44165 116.156 10.0965 116.156 10.8935V18.2254L113.753 18.6508V6.25369L115.913 5.88203V7.45812C116.156 7.08546 116.397 6.78435 116.623 6.57269C117.245 5.98836 117.971 5.70414 118.783 5.70414C119.7 5.70414 120.373 5.84625 120.84 6.14736C121.238 6.3958 121.619 6.89069 121.999 7.59923C122.794 6.34213 123.918 5.70414 125.406 5.70414C126.823 5.70414 127.878 6.14736 128.569 7.05068C129.14 7.79401 129.417 8.89211 129.417 10.3271V18.2433ZM140 14.5068C140 15.6397 139.602 16.5788 138.807 17.3052C138.012 18.0485 137.009 18.4033 135.798 18.4033C134.882 18.4033 134.069 18.1907 133.326 17.7653C132.583 17.341 132.03 16.862 131.666 16.2956L133.292 14.8437C133.412 15.0206 133.517 15.1617 133.62 15.268C134.226 15.8881 134.952 16.2071 135.798 16.2071C136.387 16.2071 136.854 16.0481 137.182 15.747C137.528 15.4459 137.684 15.0206 137.684 14.471C137.684 13.8519 137.286 13.4266 136.491 13.1961C134.917 12.7181 134.069 12.4527 133.949 12.3991C133.223 12.0274 132.704 11.6378 132.375 11.1946C132.012 10.6809 131.822 10.0081 131.822 9.14054C131.822 8.07723 132.22 7.19279 132.998 6.48424C133.776 5.77569 134.709 5.43881 135.781 5.43881C136.594 5.43881 137.355 5.6157 138.046 5.98836C138.738 6.36002 139.239 6.74957 139.533 7.21067L138.15 8.71522C137.942 8.50725 137.716 8.31773 137.476 8.14878C136.922 7.75923 136.387 7.56445 135.886 7.56445C135.401 7.56445 135.003 7.67078 134.692 7.88245C134.329 8.14878 134.139 8.53833 134.139 9.0521C134.139 9.54798 134.312 9.91965 134.675 10.1502C134.987 10.345 135.643 10.5576 136.681 10.7872C137.717 11.0356 138.513 11.461 139.084 12.0632C139.724 12.7002 140 13.4972 140 14.5068Z" fill="black"/>
</svg>

<svg width="140" height="21" fill="none" xmlns="http://www.w3.org/2000/svg"><path d="M8.58 7.339s-1.16-.115-1.16.917v4.586h7.652v1.377s.023.687-.695.687H7.42v5.963h8.348s5.054-.78 5.1-5.963V7.34H8.58ZM20.635 0H5.565C.115 1.284 0 5.756 0 5.756v15.113h5.798V7.109c0-1.17 1.158-1.375 1.158-1.375h13.681V0Zm19.897 16.544c-.397.265-.691.46-.9.584-.742.46-1.451.815-2.108 1.098-.95.39-1.799.585-2.559.585-2.61 0-4.772-.797-6.519-2.41-1.747-1.611-2.61-3.63-2.61-6.073 0-2.355.779-4.392 2.352-6.128 1.573-1.735 3.475-2.586 5.723-2.586.934 0 1.936.159 2.973.497 1.349.424 2.438 1.062 3.302 1.894l-1.504 1.664c-.64-.619-1.469-1.08-2.438-1.363-.725-.213-1.52-.318-2.403-.318-1.573 0-2.904.636-3.959 1.894-1.054 1.275-1.59 2.78-1.59 4.551 0 1.754.604 3.188 1.815 4.34 1.21 1.15 2.748 1.735 4.616 1.735.778 0 1.574-.248 2.386-.725.675-.514 1.02-.762 1.037-.78v-3.63H33.1l.725-2.267h6.71v7.438Zm15.25-4.428c0 1.753-.623 3.276-1.868 4.551-1.245 1.275-2.783 1.931-4.616 1.931-1.694 0-3.18-.638-4.46-1.895-1.28-1.257-1.903-2.78-1.903-4.57 0-1.77.606-3.294 1.816-4.604 1.21-1.311 2.697-1.948 4.443-1.948 1.937 0 3.51.62 4.737 1.877 1.228 1.222 1.85 2.78 1.85 4.658Zm-2.37.036c0-1.187-.397-2.197-1.192-3.011-.795-.833-1.781-1.24-2.957-1.24-1.106 0-2.04.425-2.818 1.275-.778.85-1.159 1.824-1.159 2.922 0 1.152.398 2.126 1.176 2.94.778.815 1.747 1.24 2.922 1.24 1.09 0 2.023-.408 2.819-1.223.812-.814 1.21-1.788 1.21-2.903Zm17.41-.036c0 1.753-.621 3.276-1.866 4.551-1.246 1.275-2.784 1.931-4.616 1.931-1.695 0-3.181-.638-4.461-1.895-1.28-1.257-1.902-2.78-1.902-4.57 0-1.77.606-3.294 1.815-4.604 1.21-1.311 2.697-1.948 4.443-1.948 1.937 0 3.51.62 4.737 1.877 1.229 1.222 1.85 2.78 1.85 4.658Zm-2.368.036c0-1.187-.398-2.197-1.193-3.011-.795-.833-1.78-1.24-2.956-1.24-1.106 0-2.04.425-2.819 1.275-.778.85-1.158 1.824-1.158 2.922 0 1.152.397 2.126 1.176 2.94.777.815 1.746 1.24 2.922 1.24 1.09 0 2.022-.408 2.818-1.223.812-.814 1.21-1.788 1.21-2.903Zm16.287 6.091-2.178.337v-2.107l-.467.53a5.723 5.723 0 0 1-1.383.957 5.589 5.589 0 0 1-2.368.514c-1.695 0-3.148-.62-4.323-1.878-1.176-1.258-1.763-2.745-1.763-4.48 0-1.789.587-3.33 1.746-4.605 1.159-1.276 2.576-1.913 4.27-1.913.969 0 1.816.159 2.524.478.502.23.934.531 1.297.904.121.16.242.336.364.495V1.95l2.315-.337-.034 16.63Zm-2.04-5.968c0-1.24-.415-2.285-1.262-3.134-.847-.869-1.799-1.293-2.887-1.293-1.21 0-2.178.407-2.921 1.222-.693.778-1.056 1.735-1.056 2.851 0 1.257.363 2.302 1.09 3.117.725.814 1.642 1.222 2.766 1.222 1.106 0 2.075-.372 2.94-1.133.881-.78 1.331-1.736 1.331-2.852Zm14.264-8.022h-6.484v4.41h5.03v2.266h-5.03v7.297l-2.524.372V1.968h8.506l.502 2.285Zm5.204-1.294-1.556 1.966-1.487-1.966 1.573-1.947 1.47 1.947Zm-.467 15.284-2.317.32V6.252l2.317-.353v12.344Zm10.46-12.467-1.089 2.514a3.059 3.059 0 0 0-.432-.035c-.225 0-.45.018-.675.053a2.66 2.66 0 0 0-.726.248c-.484.213-.899.673-1.262 1.364a5.521 5.521 0 0 0-.606 2.533v5.773l-2.315.372V6.254l2.143-.39v2.568c.276-.443.571-.885.847-1.346a3.422 3.422 0 0 1 1.383-.992c.276-.106.778-.195 1.538-.266.727-.052 1.142-.088 1.194-.052Zm17.254 12.467-2.317.337v-8.448c0-.78-.173-1.346-.519-1.7-.345-.355-.864-.532-1.539-.532-.812 0-1.435.337-1.849 1.01-.278.46-.433.956-.433 1.452v7.863l-2.316.426v-8.466c0-.743-.173-1.31-.502-1.7-.346-.39-.795-.585-1.383-.585h-.225c-.813 0-1.401.337-1.764 1.028-.276.514-.414 1.168-.414 1.965v7.332l-2.403.426V6.254l2.16-.372v1.576c.243-.373.484-.674.71-.885.622-.585 1.348-.869 2.16-.869.917 0 1.59.142 2.057.443.398.249.779.744 1.159 1.452.795-1.257 1.919-1.895 3.407-1.895 1.417 0 2.472.443 3.163 1.347.571.743.848 1.841.848 3.276v7.916ZM140 14.507c0 1.133-.398 2.072-1.193 2.798-.795.744-1.798 1.098-3.009 1.098-.916 0-1.729-.212-2.472-.638-.743-.424-1.296-.903-1.66-1.47l1.626-1.451c.12.177.225.318.328.424.606.62 1.332.94 2.178.94.589 0 1.056-.16 1.384-.461.346-.301.502-.726.502-1.276 0-.62-.398-1.044-1.193-1.275-1.574-.478-2.422-.743-2.542-.797-.726-.372-1.245-.761-1.574-1.204-.363-.514-.553-1.187-.553-2.054 0-1.064.398-1.948 1.176-2.657.778-.708 1.711-1.045 2.783-1.045.813 0 1.574.177 2.265.55.692.371 1.193.76 1.487 1.222l-1.383 1.504a5.13 5.13 0 0 0-.674-.566c-.554-.39-1.089-.585-1.59-.585-.485 0-.883.107-1.194.318-.363.267-.553.656-.553 1.17 0 .496.173.868.536 1.098.312.195.968.408 2.006.637 1.036.249 1.832.674 2.403 1.276.64.637.916 1.434.916 2.444Z" fill="#000"/></svg>
